assets/Man feeding baby/Medium-Dark/Flat/man_feeding_baby_flat_medium-dark.svg

<svg width="32" height="32" viewBox="0 0 32 32" fill="none" xmlns="http://www.w3.org/2000/svg">
<path d="M4.99997 28.0998C4.98997 29.1498 5.83997 29.9998 6.88997 29.9998H12.5L15 28.9998L17 29.9998H26.56L26.396 26.1128L28.88 25.34L23.94 19.29C21.9802 16.9751 19.0165 15.5098 15.7 15.5098C9.79997 15.5098 5.00997 20.1998 5.00997 25.9698L4.99997 28.0998Z" fill="#00A6ED"/>
<path d="M15.42 18.5302C16.48 18.5302 17.33 17.6702 17.33 16.6202V14.3602C17.33 13.3002 16.47 12.4502 15.42 12.4502C14.36 12.4502 13.51 13.3102 13.51 14.3602V16.6202C13.5 17.6802 14.36 18.5302 15.42 18.5302Z" fill="#8B5C56"/>
<path d="M20.95 9.87973C20.95 10.7965 20.2068 11.5397 19.29 11.5397C18.3732 11.5397 17.63 10.7965 17.63 9.87973C17.63 8.96293 18.3732 8.21973 19.29 8.21973C20.2068 8.21973 20.95 8.96293 20.95 9.87973Z" fill="#8B5C56"/>
<path d="M11.57 11.5799C11.57 12.4967 10.8268 13.2399 9.91 13.2399C8.99321 13.2399 8.25 12.4967 8.25 11.5799C8.25 10.6631 8.99321 9.91992 9.91 9.91992C10.8268 9.91992 11.57 10.6631 11.57 11.5799Z" fill="#8B5C56"/>
<path d="M12.97 3.68158C10.23 4.16158 8.47004 6.87158 9.14004 9.58158L10.5 15.0116C10.97 16.7116 12.55 17.7016 14.2 17.4116L17.38 16.8516C19.04 16.5616 20.18 15.0916 20.04 13.3316L19.46 7.76158C19.17 4.99158 16.59 3.04158 13.85 3.53158L12.97 3.68158Z" fill="#966661"/>
<path d="M17.41 8.45125C17.53 8.50125 17.65 8.52125 17.76 8.50125C17.93 8.47125 18.07 8.37125 18.16 8.21125C18.3 7.94125 18.2 7.61125 17.93 7.47125C17.8817 7.44707 16.9545 6.98294 15.8 7.33125C15.51 7.41125 15.34 7.72125 15.43 8.01125C15.52 8.31125 15.82 8.47125 16.11 8.38125C16.82 8.17125 17.38 8.43125 17.41 8.45125Z" fill="#372128"/>
<path d="M10.53 9.55108C10.66 9.67108 10.83 9.72108 11 9.69108C11.11 9.67108 11.22 9.62108 11.3 9.53108C11.3004 9.53069 11.3009 9.53015 11.3016 9.52946C11.3366 9.49397 11.7644 9.06031 12.5 9.02108C12.8 9.00108 13.04 8.74108 13.02 8.44108C13 8.13108 12.74 7.90108 12.44 7.92108C11.261 7.98928 10.5567 8.7126 10.4936 8.77736C10.492 8.77906 10.4908 8.78031 10.49 8.78108C10.29 9.01108 10.31 9.35108 10.53 9.55108Z" fill="#372128"/>
<path d="M18.76 3.66166L18.31 3.52166C17.99 3.42166 17.68 3.28166 17.41 3.08166L16.45 2.41166C15.73 1.91166 14.79 1.86166 14.02 2.29166C13.52 2.57166 12.95 2.67166 12.39 2.58166C11.6 2.36166 10.76 2.65166 10.29 3.32166L9.46998 4.49166C9.27998 4.76166 9.03998 5.01166 8.76998 5.21166L8.38998 5.49166C7.68998 6.01166 7.41998 6.93166 7.71998 7.75166L8.81998 10.7017C8.92998 10.9917 9.22998 11.1717 9.53998 11.1217C9.53998 11.1217 9.32998 10.2617 9.18998 9.71166C9.11998 9.43166 9.18998 9.13166 9.36998 8.90166L9.51998 8.71166C9.72998 8.44166 9.81998 8.10166 9.75998 7.77166L9.59998 6.91166C9.55998 6.67166 9.68998 6.43166 9.90998 6.33166C10.51 6.06166 11.82 5.55166 13.69 5.22166C15.56 4.89166 16.96 4.92166 17.62 4.97166C17.87 4.99166 18.07 5.17166 18.11 5.41166L18.26 6.26166C18.32 6.59166 18.52 6.89166 18.81 7.07166L19.03 7.21166C19.28 7.36166 19.44 7.62166 19.47 7.91166C19.53 8.47166 19.62 9.34166 19.62 9.34166C19.92 9.27166 20.13 9.01166 20.14 8.70166L20.16 5.56166C20.17 4.68166 19.6 3.91166 18.76 3.66166Z" fill="#2D242D"/>
<path d="M14.2252 10.5194L14.0052 12.2894C13.9552 12.6494 14.2752 12.9594 14.6352 12.8894L15.4052 12.7494C15.7652 12.6894 15.9652 12.2894 15.7952 11.9694L14.9852 10.3794C14.7952 10.0394 14.2752 10.1294 14.2252 10.5194Z" fill="#75443E"/>
<path d="M15.159 13.8937C14.6486 13.9837 14.1477 13.9437 13.7047 13.8037C13.5506 13.7537 13.435 13.9437 13.541 14.0637C13.9744 14.5437 14.6197 14.7937 15.2939 14.6737C15.968 14.5537 16.4881 14.0837 16.7385 13.4737C16.7963 13.3237 16.623 13.1837 16.4978 13.2837C16.1221 13.5837 15.6695 13.7937 15.159 13.8937Z" fill="#990838"/>
<path d="M16.1868 10.1695C16.1268 10.1195 16.0468 10.0995 15.9668 10.1095C15.7468 10.1495 15.6668 10.4295 15.8568 10.5795C16.2068 10.8695 16.6768 10.9995 17.1568 10.9195C17.6268 10.8295 18.0268 10.5395 18.2568 10.1495C18.3668 9.94953 18.1968 9.70953 17.9768 9.74953C17.8968 9.75953 17.8268 9.80953 17.7868 9.87953C17.6368 10.1395 17.3768 10.3295 17.0568 10.3895C16.7368 10.4495 16.4268 10.3595 16.1868 10.1695Z" fill="#372128"/>
<path d="M11.6868 10.9791C11.6268 10.9291 11.5468 10.9091 11.4668 10.9191C11.2468 10.9591 11.1668 11.2491 11.3568 11.3891C11.7068 11.6791 12.1768 11.8091 12.6568 11.7291C13.1268 11.6391 13.5268 11.3491 13.7568 10.9591C13.8668 10.7591 13.6968 10.5191 13.4768 10.5591C13.3968 10.5691 13.3268 10.6191 13.2868 10.6891C13.1368 10.9491 12.8768 11.1391 12.5568 11.1991C12.2368 11.2591 11.9268 11.1691 11.6868 10.9791Z" fill="#372128"/>
<path d="M16.9499 19.34L17.1599 19.4C17.4199 19.47 17.5699 19.73 17.4999 19.99C17.4299 20.25 17.1699 20.4 16.9099 20.33L16.6999 20.27C16.6199 20.25 16.5299 20.27 16.4699 20.34L16.2099 20.63C16.0999 20.76 15.9199 20.81 15.7599 20.77L15.4258 20.683L16.0458 18.373L16.3799 18.46C16.5399 18.5 16.6699 18.64 16.6999 18.8L16.7799 19.18C16.7999 19.25 16.8599 19.32 16.9499 19.34Z" fill="#F9C23C"/>
<path d="M15.08 16.9802C15.09 16.9902 15.08 16.9902 15.08 16.9802H15.1C15.5676 17.1111 15.8602 17.5743 15.7818 18.0509L16.0078 18.332L15.3711 20.668L15.0435 20.7986C14.8655 21.2418 14.3928 21.4907 13.92 21.3702H13.9L11.02 20.6002C10.45 20.4502 10.11 19.8602 10.26 19.2802L10.88 16.9702C11.03 16.4002 11.62 16.0602 12.2 16.2102H12.21L15.08 16.9802Z" fill="#26EAFC"/>
<path d="M11.11 20.27C10.72 20.16 10.49 19.76 10.59 19.37L11.21 17.06C11.32 16.67 11.72 16.44 12.11 16.54C12.12 16.54 12.1325 16.5425 12.145 16.545C12.1575 16.5475 12.17 16.55 12.18 16.55L14.95 17.29C14.96 17.295 14.97 17.2975 14.98 17.3C14.99 17.3025 15 17.305 15.01 17.31C15.33 17.4 15.52 17.74 15.43 18.06L14.75 20.6C14.67 20.92 14.33 21.12 14.01 21.04H14L11.11 20.27Z" fill="#00D1ED"/>
<path d="M15.29 20.8801L15.0391 20.8098C15.055 20.7715 15.0687 20.7317 15.08 20.6906L15.76 18.1506C15.77 18.1141 15.7778 18.0775 15.7834 18.041L16.03 18.1101C16.15 18.1401 16.22 18.2601 16.19 18.3801L15.56 20.7201C15.53 20.8401 15.41 20.9101 15.29 20.8801Z" fill="#00D1ED"/>
<path d="M13.05 20.79L11.11 20.27C10.72 20.16 10.49 19.76 10.59 19.37L11.21 17.06C11.31 16.67 11.72 16.44 12.11 16.54C12.13 16.55 12.16 16.55 12.18 16.55L13.36 16.87C13.42 16.89 13.47 16.94 13.47 17.01L13.42 20.52C13.4 20.71 13.23 20.84 13.05 20.79Z" fill="white"/>
<path d="M23.18 27.1596C25.5548 27.1596 27.48 25.2344 27.48 22.8596C27.48 20.4847 25.5548 18.5596 23.18 18.5596C20.8052 18.5596 18.88 20.4847 18.88 22.8596C18.88 25.2344 20.8052 27.1596 23.18 27.1596Z" fill="#00F397"/>
<path d="M22.02 18.7197C20.65 20.0597 20.31 22.1997 21.31 23.9397C22.32 25.6797 24.35 26.4497 26.19 25.9397C25.94 26.1797 25.65 26.4097 25.33 26.5897C24.1138 27.2914 22.6926 27.3298 21.4899 26.8169C21.5692 28.0335 21.164 29.1537 20.01 29.8098L14 29V30H11.98L11.77 29.6598C10.6 27.6298 11.29 25.0198 13.33 23.8498L15.76 22.4498C16.7689 21.8684 17.921 21.7463 18.9684 22.021C19.2007 20.8677 19.8999 19.8134 20.98 19.1697C21.31 18.9697 21.66 18.8197 22.02 18.7197Z" fill="#00D26A"/>
<path d="M4.83 21.2003L2 30.0003H8.37L10.55 22.9803C11.04 21.4003 10.16 19.7203 8.58 19.2303C7 18.7403 5.32 19.6203 4.83 21.2003Z" fill="#3BC6F6"/>
<path d="M27.06 24.6504L20.6461 25.7804C19.6926 25.9504 19.5 26.7704 19.5 27.7404V30H27.06C28.5455 30 29.75 28.8104 29.75 27.3304C29.75 25.8504 28.676 24.3904 27.06 24.6504Z" fill="#3BC6F6"/>
<path d="M7.90997 17.6698L6.92997 19.5698C6.65997 20.0898 6.53407 20.8579 6.84407 21.3579C7.14407 21.8579 7.70467 22.263 8.28467 22.343C8.66467 22.403 9.41697 22.3659 10.067 21.3959L10.45 21.6498C10.6 21.8198 10.81 21.8998 11.02 21.8998C11.2 21.8998 11.39 21.8298 11.55 21.6898C11.75 21.5098 11.83 21.2498 11.79 20.9998C12.08 21.1098 12.43 21.0198 12.64 20.7598C12.9 20.4198 12.85 19.9398 12.52 19.6698L11.53 18.8698C11.52 18.8698 11.52 18.8698 11.51 18.8598L13.08 19.0798C13.5 19.1398 13.89 18.8398 13.95 18.4198C14 18.1198 13.85 17.8298 13.61 17.6698C14.03 17.7298 14.42 17.4298 14.48 17.0098C14.54 16.5898 14.24 16.1998 13.82 16.1398L12.16 15.9098C12.1 15.8998 11.49 15.8198 11.49 15.8198C9.76997 15.5798 8.63997 16.2598 7.90997 17.6698Z" fill="#8B5C56"/>
<path d="M16.1135 27.8569H13.5622C12.9765 27.8569 12.5 28.336 12.5 28.925C12.5 29.514 12.9765 30 13.5622 30H18.8732C19.0119 30.0096 19.1529 29.9847 19.2872 29.9376C19.4319 29.8869 19.4653 29.4029 19.4653 29.4029V28.4213L19.3696 27.8569L17.4338 25.9102C17.0268 25.4909 16.3517 25.4909 15.9348 25.9102C15.5178 26.3195 15.5178 26.9983 15.9348 27.4176L16.1929 27.6772C16.2525 27.7371 16.2128 27.8569 16.1135 27.8569Z" fill="#8B5C56"/>
<path d="M10.01 21.1796L10.45 21.6496C9.49993 23 7.99999 23 6.99993 22.25C5.99986 21.5 5.99999 20 6.49995 19.5C6.49995 19.5 6.74998 19.1667 7.24998 19L6.91048 19.6082C6.77447 19.8871 6.72053 20.1901 6.74865 20.487C6.77208 20.7346 6.85251 20.9779 6.98996 21.1996C7.28996 21.6996 7.81996 22.0296 8.39996 22.1096C8.77996 22.1696 9.35997 22.1496 10.01 21.1796Z" fill="#007ACF"/>
<path d="M19.25 26.5C19.1119 26.5 19 26.6119 19 26.75V30H19.75V26.625C19.75 26.556 19.694 26.5 19.625 26.5H19.25Z" fill="#007ACF"/>
</svg>

<svg xmlns="http://www.w3.org/2000/svg" width="32" height="32" fill="none"><path fill="#00A6ED" d="M5 28.1c-.01 1.05.84 1.9 1.89 1.9h5.61l2.5-1 2 1h9.56l-.164-3.887 2.484-.773-4.94-6.05c-1.96-2.315-4.924-3.78-8.24-3.78-5.9 0-10.69 4.69-10.69 10.46L5 28.1Z"/><path fill="#8B5C56" d="M15.42 18.53c1.06 0 1.91-.86 1.91-1.91v-2.26a1.91 1.91 0 1 0-3.82 0v2.26c-.01 1.06.85 1.91 1.91 1.91ZM20.95 9.88a1.66 1.66 0 1 1-3.32 0 1.66 1.66 0 0 1 3.32 0ZM11.57 11.58a1.66 1.66 0 1 1-3.32 0 1.66 1.66 0 0 1 3.32 0Z"/><path fill="#966661" d="M12.97 3.682c-2.74.48-4.5 3.19-3.83 5.9l1.36 5.43c.47 1.7 2.05 2.69 3.7 2.4l3.18-.56c1.66-.29 2.8-1.76 2.66-3.52l-.58-5.57c-.29-2.77-2.87-4.72-5.61-4.23l-.88.15Z"/><path fill="#372128" d="M17.41 8.451c.12.05.24.07.35.05.17-.03.31-.13.4-.29.14-.27.04-.6-.23-.74a3.038 3.038 0 0 0-2.13-.14c-.29.08-.46.39-.37.68.09.3.39.46.68.37.71-.21 1.27.05 1.3.07ZM10.53 9.551c.13.12.3.17.47.14.11-.02.22-.07.3-.16l.002-.002c.035-.035.462-.469 1.198-.508.3-.02.54-.28.52-.58a.549.549 0 0 0-.58-.52c-1.179.068-1.883.792-1.946.856a.55.55 0 0 0 .036.774Z"/><path fill="#2D242D" d="m18.76 3.662-.45-.14c-.32-.1-.63-.24-.9-.44l-.96-.67c-.72-.5-1.66-.55-2.43-.12-.5.28-1.07.38-1.63.29-.79-.22-1.63.07-2.1.74l-.82 1.17c-.19.27-.43.52-.7.72l-.38.28c-.7.52-.97 1.44-.67 2.26l1.1 2.95c.11.29.41.47.72.42 0 0-.21-.86-.35-1.41-.07-.28 0-.58.18-.81l.15-.19c.21-.27.3-.61.24-.94l-.16-.86c-.04-.24.09-.48.31-.58.6-.27 1.91-.78 3.78-1.11 1.87-.33 3.27-.3 3.93-.25.25.02.45.2.49.44l.15.85c.06.33.26.63.55.81l.22.14c.25.15.41.41.44.7.06.56.15 1.43.15 1.43.3-.07.51-.33.52-.64l.02-3.14c.01-.88-.56-1.65-1.4-1.9Z"/><path fill="#75443E" d="m14.225 10.52-.22 1.77c-.05.36.27.67.63.6l.77-.14a.54.54 0 0 0 .39-.78l-.81-1.59c-.19-.34-.71-.25-.76.14Z"/><path fill="#990838" d="M15.159 13.894a3.07 3.07 0 0 1-1.454-.09c-.154-.05-.27.14-.164.26.433.48 1.079.73 1.753.61.674-.12 1.194-.59 1.444-1.2.058-.15-.115-.29-.24-.19-.376.3-.829.51-1.339.61Z"/><path fill="#372128" d="M16.187 10.17a.286.286 0 0 0-.22-.06c-.22.04-.3.32-.11.47.35.29.82.42 1.3.34.47-.09.87-.38 1.1-.77.11-.2-.06-.44-.28-.4-.08.01-.15.06-.19.13a1.074 1.074 0 0 1-1.6.29ZM11.687 10.98a.286.286 0 0 0-.22-.06c-.22.04-.3.33-.11.47.35.29.82.42 1.3.34.47-.09.87-.38 1.1-.77.11-.2-.06-.44-.28-.4-.08.01-.15.06-.19.13a1.074 1.074 0 0 1-1.6.29Z"/><path fill="#F9C23C" d="m16.95 19.34.21.06c.26.07.41.33.34.59-.07.26-.33.41-.59.34l-.21-.06c-.08-.02-.17 0-.23.07l-.26.29c-.11.13-.29.18-.45.14l-.334-.087.62-2.31.334.087c.16.04.29.18.32.34l.08.38c.02.07.08.14.17.16Z"/><path fill="#26EAFC" d="M15.08 16.98c.01.01 0 .01 0 0h.02c.468.131.76.594.682 1.07l.226.282-.637 2.336-.328.13a.952.952 0 0 1-1.123.572h-.02l-2.88-.77a1.08 1.08 0 0 1-.76-1.32l.62-2.31c.15-.57.74-.91 1.32-.76h.01l2.87.77Z"/><path fill="#00D1ED" d="M11.11 20.27a.744.744 0 0 1-.52-.9l.62-2.31c.11-.39.51-.62.9-.52.01 0 .023.003.035.005.013.002.025.005.035.005l2.77.74c.01.005.02.008.03.01a.612.612 0 0 1 .45.76l-.68 2.54c-.08.32-.42.52-.74.44H14l-2.89-.77ZM15.29 20.88l-.25-.07c.015-.038.029-.078.04-.12l.68-2.54a.974.974 0 0 0 .023-.109l.247.07c.12.03.19.15.16.27l-.63 2.34a.22.22 0 0 1-.27.16Z"/><path fill="#fff" d="m13.05 20.79-1.94-.52a.744.744 0 0 1-.52-.9l.62-2.31c.1-.39.51-.62.9-.52.02.01.05.01.07.01l1.18.32c.06.02.11.07.11.14l-.05 3.51c-.02.19-.19.32-.37.27Z"/><path fill="#00F397" d="M23.18 27.16a4.3 4.3 0 1 0 0-8.6 4.3 4.3 0 0 0 0 8.6Z"/><path fill="#00D26A" d="M22.02 18.72a4.3 4.3 0 0 0-.71 5.22 4.317 4.317 0 0 0 4.88 2 4.297 4.297 0 0 1-4.7.877c.08 1.216-.326 2.337-1.48 2.993L14 29v1h-2.02l-.21-.34c-1.17-2.03-.48-4.64 1.56-5.81l2.43-1.4a4.25 4.25 0 0 1 3.208-.429 4.298 4.298 0 0 1 2.012-2.851c.33-.2.68-.35 1.04-.45Z"/><path fill="#3BC6F6" d="M4.83 21.2 2 30h6.37l2.18-7.02a2.995 2.995 0 0 0-5.72-1.78ZM27.06 24.65l-6.414 1.13c-.953.17-1.146.99-1.146 1.96V30h7.56c1.486 0 2.69-1.19 2.69-2.67s-1.074-2.94-2.69-2.68Z"/><path fill="#8B5C56" d="m7.91 17.67-.98 1.9c-.27.52-.396 1.288-.086 1.788.3.5.86.905 1.44.985.38.06 1.133.023 1.783-.947l.383.254c.15.17.36.25.57.25.18 0 .37-.07.53-.21.2-.18.28-.44.24-.69.29.11.64.02.85-.24.26-.34.21-.82-.12-1.09l-.99-.8c-.01 0-.01 0-.02-.01l1.57.22c.42.06.81-.24.87-.66.05-.3-.1-.59-.34-.75.42.06.81-.24.87-.66a.775.775 0 0 0-.66-.87l-1.66-.23c-.06-.01-.67-.09-.67-.09-1.72-.24-2.85.44-3.58 1.85ZM16.113 27.857h-2.55a1.072 1.072 0 0 0 0 2.143h5.31c.139.01.28-.015.414-.062.145-.051.178-.535.178-.535v-.982l-.095-.564-1.936-1.947a1.05 1.05 0 0 0-1.5 0 1.065 1.065 0 0 0 0 1.508l.259.26c.06.06.02.179-.08.179Z"/><path fill="#007ACF" d="m10.01 21.18.44.47C9.5 23 8 23 7 22.25 6 21.5 6 20 6.5 19.5c0 0 .25-.333.75-.5l-.34.608a1.644 1.644 0 0 0 .08 1.591c.3.5.83.83 1.41.91.38.06.96.04 1.61-.93ZM19.25 26.5a.25.25 0 0 0-.25.25V30h.75v-3.375a.125.125 0 0 0-.125-.125h-.375Z"/></svg>
